Sources/FrostedUI/Resources/Icons.xcassets/twitterSize16.imageset/twitter-size-16.svg

<svg
  width="17"
  height="16"
  viewBox="0 0 17 16"
  fill="none"
  xmlns="http://www.w3.org/2000/svg"
  data-fui-icon="true"
>
  <path
    d="M3.57187 9.229C3.45312 9.281 3.03011 9.32812 2.75 9.32812C2.62562 9.32812 2.50751 9.3234 2.39041 9.3112C2.296 9.30136 2.21853 9.39097 2.25424 9.47891C2.70093 10.579 3.78498 11.3619 5.05695 11.384C4.00326 12.1968 2.67608 12.6813 1.23461 12.6813C1.1719 12.6813 1.10941 12.6804 1.04714 12.6785C0.914223 12.6747 0.856123 12.8535 0.97274 12.9174C2.23027 13.6063 3.67628 14 5.21681 14C10.8783 14 13.9733 9.3844 13.9733 5.38138C13.9733 5.25133 13.97 5.11997 13.9641 4.98992C14.5652 4.56205 15.0871 4.02948 15.4987 3.42278V3.42278C15.4991 3.42222 15.4985 3.4215 15.4978 3.42178C15.0167 3.63141 14.5044 3.78169 13.9681 3.86529C13.9146 3.87362 13.8882 3.80015 13.9326 3.76919C14.3812 3.45596 14.7412 3.0272 14.9674 2.52694C15.0147 2.42228 14.9003 2.32641 14.7982 2.37903C14.2813 2.6454 13.7215 2.84208 13.1317 2.95589C12.5701 2.36805 11.7708 2 10.8856 2C9.18647 2 7.8084 3.35645 7.8084 5.03024C7.8084 5.26693 7.8362 5.49713 7.88767 5.71952C5.39294 5.59588 3.1758 4.44598 1.65944 2.68998C1.60282 2.62441 1.49813 2.63292 1.45861 2.71001C1.24756 3.12161 1.12825 3.586 1.12825 4.07695C1.12825 5.12778 1.67194 6.05571 2.49705 6.59868C2.00621 6.58287 1.54411 6.45389 1.13749 6.23808C1.12197 6.22984 1.10315 6.24102 1.10315 6.25859V6.25859C1.10315 7.71473 2.14684 8.93141 3.53874 9.22226M3.57187 9.229C3.56081 9.22681 3.54976 9.22457 3.53874 9.22226M3.57187 9.229L3.53874 9.22226"
    stroke="currentColor"
    stroke-width="1.3"
  />
</svg>

<svg xmlns="http://www.w3.org/2000/svg" width="17" height="16" fill="none" data-fui-icon="true" viewBox="0 0 17 16"><path stroke="currentColor" stroke-width="1.3" d="M3.572 9.229c-.119.052-.542.1-.822.1a4 4 0 0 1-.36-.018c-.094-.01-.171.08-.136.168a3.08 3.08 0 0 0 2.803 1.905 6.24 6.24 0 0 1-4.01 1.294c-.133-.003-.19.175-.074.24A8.8 8.8 0 0 0 5.217 14c5.661 0 8.756-4.616 8.756-8.619q0-.196-.009-.391A6.2 6.2 0 0 0 15.5 3.423q0-.001-.001-.001c-.481.21-.994.36-1.53.443-.053.009-.08-.065-.035-.096a3.05 3.05 0 0 0 1.034-1.242c.048-.105-.067-.2-.169-.148a6.2 6.2 0 0 1-1.666.577A3.1 3.1 0 0 0 10.886 2c-1.7 0-3.078 1.356-3.078 3.03q.001.356.08.69a8.79 8.79 0 0 1-6.229-3.03c-.056-.066-.16-.057-.2.02-.211.412-.33.876-.33 1.367 0 1.05.543 1.979 1.368 2.522a3.1 3.1 0 0 1-1.36-.36.023.023 0 0 0-.034.02c0 1.456 1.044 2.672 2.436 2.963m.033.007-.033-.007m.033.007-.033-.007"/></svg>
